src/modules/landing/assets/spreadsheet.svg

<svg width="24" height="22.4" viewBox="0 0 24 24" fill="#63666B" xmlns="http://www.w3.org/2000/svg">
<path d="M2.4 0.799927H21.6C22.2365 0.799927 22.847 1.04835 23.2971 1.49054C23.7471 1.93273 24 2.53247 24 3.15782V20.842C24 21.4674 23.7471 22.0671 23.2971 22.5093C22.847 22.9515 22.2365 23.1999 21.6 23.1999H2.4C1.76348 23.1999 1.15303 22.9515 0.702944 22.5093C0.252856 22.0671 0 21.4674 0 20.842V3.15782C0 2.53247 0.252856 1.93273 0.702944 1.49054C1.15303 1.04835 1.76348 0.799927 2.4 0.799927ZM2.4 5.51572V9.05256H7.2V5.51572H2.4ZM9.6 5.51572V9.05256H14.4V5.51572H9.6ZM21.6 9.05256V5.51572H16.8V9.05256H21.6ZM2.4 11.4105V14.9473H7.2V11.4105H2.4ZM2.4 20.842H7.2V17.3052H2.4V20.842ZM9.6 11.4105V14.9473H14.4V11.4105H9.6ZM9.6 20.842H14.4V17.3052H9.6V20.842ZM21.6 20.842V17.3052H16.8V20.842H21.6ZM21.6 11.4105H16.8V14.9473H21.6V11.4105Z"/>
</svg>

<svg width="24" height="22.4" viewBox="0 0 24 24" fill="#63666B" xmlns="http://www.w3.org/2000/svg"><path d="M2.4.8h19.2c.636 0 1.247.248 1.697.69.45.443.703 1.042.703 1.668v17.684c0 .625-.253 1.225-.703 1.667-.45.442-1.06.69-1.697.69H2.4a2.422 2.422 0 01-1.697-.69A2.337 2.337 0 010 20.842V3.158c0-.626.253-1.225.703-1.667C1.153 1.048 1.763.8 2.4.8zm0 4.716v3.537h4.8V5.516H2.4zm7.2 0v3.537h4.8V5.516H9.6zm12 3.537V5.516h-4.8v3.537h4.8zM2.4 11.41v3.537h4.8v-3.536H2.4zm0 9.432h4.8v-3.537H2.4v3.537zm7.2-9.431v3.536h4.8v-3.536H9.6zm0 9.431h4.8v-3.537H9.6v3.537zm12 0v-3.537h-4.8v3.537h4.8zm0-9.431h-4.8v3.536h4.8v-3.536z"/></svg>
